X:4
T:The Mountain Road
R:Reel
C:Trad.
D:John Doyle: Irish rhythm guitar
M:2/2
L:1/8
Q:1/4 = 160
K:D
%
|: F2FA BFAF | FFAF EFDE |1 F2FA BFAF|GEFD EDBA :|2 FAAA BAFB | ABde fddc |
   d2dB ADFA | dcde fgfe | d2Bd ADFA | GEFD EFD2 |
   dedB ADFA | dcde fgfe | dedB ADFA | GEFD EDBA |
